X: 4
T: Charlie Lennon's
R: reel
M: 4/4
L: 1/8
K: Dmaj
DE|:F2 AF dFAF|DFAF GBAG|F2 AF dFAF|GABG E3 G|
F2 AF dFAF|DFAF GBAG|FAdf ecAB|1 c/B/A/ ed cAGE:|2 (3cBA ed cABc||
d2 fd Adfd|eA (3AAA afge|d2 fd adfd|ce (3eee gece|
[1 d2 fd Adfd|BG (3GGG g2 fg|afge fded|(3Bcd ed BABc:|
[2 defd Adfd|BAGB g2 fg|afge fded|(3Bcd ed cAGE||


Tune 2115	Setting 15498

